X:1
T:French Suite II Courante
T:BWV 813
T:J. S. Bach 
%%score { ( 1 3 4 ) | 2 }
L:1/8
Q:1/4=184
M:3/4
K:Eb
V:1 treble nm="Harp"
V:3 treble 
V:4 treble 
V:2 bass 
V:1
"^Presto" GA F | Gc GF ED | ED CE Gc | Gd ec fc | =Bd G2 z2 | z g ec gB | Ac F2 z2 | z f dB fA | %8
 GB E2 z2 | z B GE B_D | Cc AF cE | Dd BG dF | Ee cA eG | Ff dB fA | GB cA Be | de Fc BA | %16
 GF Ee dc | =Ba fd gd | ed cB =AG | ^Fe c=A dA | B=A GF =ED | ^CB G=E =AE | B,=A ^FD GD | %23
 =A,G EC ^FC | G3 G AF | Gc GF ED | ED CE Gc | Gd ec fc | =Bd G2 z2 | z g ec gB | Ac F2 z2 | %31
 z f dB fA | GB E2 z2 | z B GE B_D | Cc AF cE | Dd BG dF | Ee cA eG | Ff dB fA | GB cA Be | %39
 de Fc BA | GF Ee dc | =Ba fd gd | ed cB =AG | ^Fe c=A dA | B=A GF =ED | ^CB G=E =AE | %46
 B,=A ^FD GD | =A,G EC ^FC | G3 d =Ac | =BG dA GF | EG =Bd cE | Dc =Bd ef | ed ce df | %53
 f/4e/4f/4e/4f/4e/4f/4e/4 f/4e/4f/4e/4f/4e/4f/4e/4 f/4e/4f/4e/4f/4e/4f/4e/4 | f/4e/4f/4e/4c fa gb | %55
 b/4a/4b/4a/4b/4a/4b/4a/4 b/4a/4b/4a/4b/4a/4b/4a/4 b/4a/4b/4a/4b/4a/4b/4a/4 | %56
 b/4a/4b/4a/4b/4a/4b/4a/4 b/4a/4b/4a/4b/4a/4b/4a/4 b/4a/4b/4a/4b/4a/4b/4a/4 | %57
 b/4a/4b/4a/4b/4a/4b/4a/4 a2 f2- | f2 =e2 ^c2- | c2 =c2 B2- | B_d cB A=E | %61
 F_d B/4A/4B/4A/4B/4A/4B/4A/4 GF | Fc AG FE | DF AG A2- | Ad BA GF | EG BA B2- | Be cB AG | %67
 Ff dc =B=A | Gg fe dc | =Bd GF ED | CA FD BG | Ec AF d=B | Ge c=A fd | =Bg ec af | db ge c'g | %75
 ag fe dc | =Ba fd gd | ed cB =AG | ^Fe c=A dA | Ed =BG cG | Dc AF =BF | c3 d =Ac | =BG dA GF | %83
 EG =Bd cE | Dc =Bd ef | ed ce df | %86
 f/4e/4f/4e/4f/4e/4f/4e/4 f/4e/4f/4e/4f/4e/4f/4e/4 f/4e/4f/4e/4f/4e/4f/4e/4 | f/4e/4f/4e/4c fa gb | %88
 b/4a/4b/4a/4b/4a/4b/4a/4 b/4a/4b/4a/4b/4a/4b/4a/4 b/4a/4b/4a/4b/4a/4b/4a/4 | %89
 b/4a/4b/4a/4b/4a/4b/4a/4 b/4a/4b/4a/4b/4a/4b/4a/4 b/4a/4b/4a/4b/4a/4b/4a/4 | %90
 b/4a/4b/4a/4b/4a/4b/4a/4 a2 f2- | f2 =e2 ^c2- | c2 =c2 B2- | B_d cB A=E | %94
 F_d B/4A/4B/4A/4B/4A/4B/4A/4 GF | Fc AG FE | DF AG A2- | Ad BA GF | EG BA B2- | Be cB AG | %100
 Ff dc =B=A | Gg fe dc | =Bd GF ED | CA FD BG | Ec AF d=B | Ge c=A fd | =Bg ec af | db ge c'g | %108
 ag fe dc | =Ba fd gd | ed cB =AG | ^Fe c=A dA | Ed =BG cG | Dc AF =BF | !fermata!c3 z z2 |] %115
V:2
 z z2 | C,2 E,2 G,2 | C2 C,2 C2 | %3
 B,2 B,/4A,/4B,/4A,/4B,/4A,/4B,/4A,/4 B,/4A,/4B,/4A,/4B,/4A,/4B,/4A,/4 | G,2 z F ED | E2 C2 E2 | %6
 F,2 z E DC | D2 B,2 D2 | E,3 G, F,A, | G,2 E,2 G,2 | A,2 F,2 A,2 | B,2 G,2 B,2 | C2 A,2 C2 | %13
 D2 B,2 D2 | E2 E,F, G,2 | A,2 B,2 B,,2 | E,2 z G, F,E, | D,2 C,2 =B,,2 | C,2 z D CB, | %19
 =A,2 G,2 ^F,2 | G,2 z G, =A,B, | =E,2 D,2 ^C,2 | D,2 C,2 B,,2 | C,2 D,2 D,,2 | G,,3 z z2 | %25
 C,2 E,2 G,2 | C2 C,2 C2 | B,2 B,/4A,/4B,/4A,/4B,/4A,/4B,/4A,/4 B,/4A,/4B,/4A,/4B,/4A,/4B,/4A,/4 | %28
 G,2 z F ED | E2 C2 E2 | F,2 z E DC | D2 B,2 D2 | E,3 G, F,A, | G,2 E,2 G,2 | A,2 F,2 A,2 | %35
 B,2 G,2 B,2 | C2 A,2 C2 | D2 B,2 D2 | E2 E,F, G,2 | A,2 B,2 B,,2 | E,2 z G, F,E, | D,2 C,2 =B,,2 | %42
 C,2 z D CB, | =A,2 G,2 ^F,2 | G,2 z G, =A,B, | =E,2 D,2 ^C,2 | D,2 C,2 B,,2 | C,2 D,2 D,,2 | %48
 G,,3 z z2 | G,,2 =B,,2 D,2 | G,2 F,2 E,2 | F,2 G,2 G,,2 | C,2 E,2 G,2 | CG, E,C, G,B,, | A,,2 z4 | %55
 z C A,F, CE, | _D,2 z4 | z F _DB, DA, | G,_D B,G, B,F, | =E,B, G,E, G,_D, | C,3 C, _D,2 | %61
 B,,2 C,2 C,,2 | F,,2 F,2 A,,2 | B,,A, F,E, D,C, | B,,2 G,2 B,,2 | C,B, G,F, E,D, | C,2 A,2 C,2 | %67
 D,2 =B,2 D,2 | E,2 A,2 F,2 | G,F, E,G, C,E, | A,2 A,,2 G,,2 | G,2 F,2 F,,2 | E,,2 E,2 D,2 | %73
 D,,2 C,,2 z F,, | B,,D, E,G, A,C | F,2 z F, G,A, | D,2 C,2 =B,,2 | C,2 z C DE | =A,2 G,2 ^F,2 | %79
 G,2 F,2 E,2 | F,2 G,2 G,,2 | C,,3 z z2 | G,,2 =B,,2 D,2 | G,2 F,2 E,2 | F,2 G,2 G,,2 | %85
 C,2 E,2 G,2 | CG, E,C, G,B,, | A,,2 z4 | z C A,F, CE, | _D,2 z4 | z F _DB, DA, | G,_D B,G, B,F, | %92
 =E,B, G,E, G,_D, | C,3 C, _D,2 | B,,2 C,2 C,,2 | F,,2 F,2 A,,2 | B,,A, F,E, D,C, | B,,2 G,2 B,,2 | %98
 C,B, G,F, E,D, | C,2 A,2 C,2 | D,2 =B,2 D,2 | E,2 A,2 F,2 | G,F, E,G, C,E, | A,2 A,,2 G,,2 | %104
 G,2 F,2 F,,2 | E,,2 E,2 D,2 | D,,2 C,,2 z F,, | B,,D, E,G, A,C | F,2 z F, G,A, | D,2 C,2 =B,,2 | %110
 C,2 z C DE | =A,2 G,2 ^F,2 | G,2 F,2 E,2 | F,2 G,2 G,,2 | !fermata!C,,3 z z2 |] %115
V:3
 x3 | x6 | x6 | x6 | x6 | x6 | x6 | x6 | x6 | x6 | x6 | x6 | x6 | x6 | x6 | x6 | x6 | x6 | x6 | %19
 x6 | x6 | x6 | x6 | x6 | D3 z z2 | x6 | x6 | x6 | x6 | x6 | x6 | x6 | x6 | x6 | x6 | x6 | x6 | %37
 x6 | x6 | x6 | x6 | x6 | x6 | x6 | x6 | x6 | x6 | x6 | D3 x3 | x6 | x6 | x6 | z4 =B2 | c6- | %54
 c z z2 =e2 | f6- | fg fe _dc | B6- | B6- | B2 =E2 F2 | =E2 z4 | x6 | x6 | x6 | x6 | x6 | x6 | x6 | %68
 x6 | x6 | x6 | x6 | x6 | x6 | x6 | x6 | x6 | x6 | x6 | x6 | x6 | G3 z z2 | x6 | x6 | x6 | z4 =B2 | %86
 c6- | c z z2 =e2 | f6- | fg fe _dc | B6- | B6- | B2 =E2 F2 | =E2 z4 | x6 | x6 | x6 | x6 | x6 | %99
 x6 | x6 | x6 | x6 | x6 | x6 | x6 | x6 | x6 | x6 | x6 | x6 | x6 | x6 | x6 | G3 x3 |] %115
V:4
 x3 | x6 | x6 | x6 | x6 | x6 | x6 | x6 | x6 | x6 | x6 | x6 | x6 | x6 | x6 | x6 | x6 | x6 | x6 | %19
 x6 | x6 | x6 | x6 | x6 | =B,3 z z2 | x6 | x6 | x6 | x6 | x6 | x6 | x6 | x6 | x6 | x6 | x6 | x6 | %37
 x6 | x6 | x6 | x6 | x6 | x6 | x6 | x6 | x6 | x6 | x6 | =B,3 x3 | x6 | x6 | x6 | x6 | x6 | x6 | %55
 x6 | x6 | x6 | x6 | x6 | x6 | x6 | x6 | x6 | x6 | x6 | x6 | x6 | x6 | x6 | x6 | x6 | x6 | x6 | %74
 x6 | x6 | x6 | x6 | x6 | x6 | x6 | E3 z z2 | x6 | x6 | x6 | x6 | x6 | x6 | x6 | x6 | x6 | x6 | %92
 x6 | x6 | x6 | x6 | x6 | x6 | x6 | x6 | x6 | x6 | x6 | x6 | x6 | x6 | x6 | x6 | x6 | x6 | x6 | %111
 x6 | x6 | x6 | E3 x3 |] %115

